X: 1
T: Unknown Reel 2
T: Reel (swung), skip anacrusis first time
C: Trad
R: Reel
M: 4/4
L: 1/8
K: Gmaj
Z: ABC transcription by Jack Kanutin
r: 16
cA|: "C" G2 (3GGG  FG"D"AF | (3GAG FG AdcA | "C" G2 (3GGG FG"D"Ad |1 fdcA d2 cA :|2 fdcA d2 Bc||
"G" dg (3gfg fg"Bm7"af | dg bgag fa| "C" dg (3gfg fg"C/D"ag | fdcAd2 Bc 
"G" dg (3gfg fg"Bm7"af | dgbg a2 ga |"C" bd'"Am7"af gb"C/D"ag | fdcA d2||
